X: 145
T: Sr John Falstafe
B: 204 Favourite Country Dances
N: Published by Straight & Skillern, London ca.1775
F: http://imslp.org/wiki/204_Favourite_Country_Dances_(Various) p.73 #145
Z: 2014 John Chambers <jc:trillian.mit.edu>
M: 6/8
L: 1/8
K: Bb
% - - - - - - - - - - - - - - - - - - - - - - - - -
|:\
B,DF Bdf | edc d2c | Bbg fdB | cde dcB |\
B,DF BFB | GEG cGc | AFA edc | dBB B2 :|
|:\
FAc fcf | FAc ece | FAc Bdf | ged c2E |\
DFB BFD | EGB BGE | DFB AFe | dBB B2 :|
% - - - - - - - - - - - - - - - - - - - - - - - - -
%%begintext align
%% Hey Contrary sides .| then on your own sides :| Cross over
%% 1 Cu. Lead up and cast off .|: hands round 4 at the Bottom
%% Right and Left at top
%%endtext

%%sep 1 1 500
%%sep 1 1 500
